X:1
T:AYWAKIN3?- Jess Macfarlane
S:David Young MS, 1740. Bodleian MS Don. d. 54
Q:1/4=120
L:1/8
M:C
K:D
e|fA A/A/A "tr"e3/2d/2Be|fA A/A/A "tr"e2 de|\
fA A/A/A "tr"e3/2d/2Be|aedf "tr"e2e:|\
e|fdef "tr"d3/2d/Be|fdfd "tr"e2 de|fdfd "tr"e3/2dBe|\
aefd "tr"e2d:|]

